X:1
T:Odessa Bulgar
C:Trad.
O:Klezmer
D:Klezmer Pioneers, 1905-1952 (Rounder)
Z:Mishka Ziganoff, solo accordion.  1920
Z:http://swiss.csail.mit.edu/~jaffer/Music
Q:1/4=150
M:4/4
L:1/8
K:Ab
%%MIDI channel 1
%%MIDI program 1 71
%%MIDI chordprog 21
%%MIDI bassprog 21
%%MIDI gchord f3zc3zf3zc3zf3zc3zf3zc3z
"Eb7"Ez _Fz Gz Az |G3_F ((3AGF) E2 |Gz Az Bz _cz |B3A (~BA) G2 |
"Abm"(B_c)(dc) (dc)(BA) |"Eb7"(GA)(BA) (BA)G>(A|"Dbm"ED)(E_F) (GA)(GF)\
 | "Eb7"(E/=D/E) (G/_G/=G) (B/=A/B) e2 |
"Abm"(B_c)(dc) (dc)(BA) |"Eb7"(GA)(BA) (BA)G>(A|"Dbm"ED)(E_F) (GA)(GF)\
 | "Eb7"E4z/(E/=D/E/_F/=F/_G/=G/) |
|:"Abm"A4z E (_c>B) |A4z E (_c>B) |(AB)(_cd) (ed)(_fe) |"Dbm"d4 z2(d>_c) |
"Eb7"(_cB)-B3 (A B>A) |(A>G)-G3 (EGE)|"Dbm"(ADE_F) (GAG_F)\
 |1"Eb7"E4z/(E/=D/E/_F/=F/_G/=G/) :|2 "Eb7"E4z4 ||
W:
W:
W:Arrangement Copyright (C) 1999 Voluntocracy.
W:
W:Permission is granted to copy and distribute modified or unmodified versions of this music
W:provided the copyright notice and this permission notice are preserved on all copies and the
W:entire such work is distributed under the terms of a permission notice identical to this one.
